X: 25848
T: Master Shanley's
R: hornpipe
M: 4/4
K: Gmajor
|:BA|GEDB, D2 (3B,A,G,|B,EDB, D2 GA|Bd (3ddd ed (3ddd|BAGB A2 BA|
BEDB, D2 (3B,A,G,|B,EDB, D2 GA|~B3 A AGBA|1 G2 GF G2:|2 G2 GF GBAB||
cE (3EEE cedc|BD (3DDD B2 AB|cE (3EEE cdef|gdeg a2 ge|
dBAG B2 GA|BGAG EGDC|B,D (3DDD CEGE|DcBA G2 AB|
cE (3EEE c3 A|BD (3DDD B2 AB|cE (3EEE cdef|gdeg a2 ge|
dBAG B2 GA|BGAG EGDC|B,D (3DDD CEGE|DcBA G2||

